storage/app/icons/phosphoricons/bold/pencil-line-bold.svg

<svg xmlns="http://www.w3.org/2000/svg" fill="currentColor" viewBox="0 0 256 256"><path d="m230.15 70.54-44.69-44.68a20 20 0 0 0-28.28 0L33.86 149.17A19.86 19.86 0 0 0 28 163.31V208a20 20 0 0 0 20 20h168a12 12 0 0 0 0-24h-91L230.15 98.83a20 20 0 0 0 0-28.29M136 81l11 11-71 71-11-11ZM52 204v-31l15.52 15.51L83 204Zm52-13-11-11 71-71 11 11Zm88-88-39-39 18.34-18.34 39 39Z"/></svg>

<svg xmlns="http://www.w3.org/2000/svg" viewBox="0 0 256 256" fill="currentColor"><path d="M230.15,70.54,185.46,25.86a20,20,0,0,0-28.28,0L33.86,149.17A19.86,19.86,0,0,0,28,163.31V208a20,20,0,0,0,20,20H216a12,12,0,0,0,0-24H125L230.15,98.83A20,20,0,0,0,230.15,70.54ZM136,81l11,11L76,163,65,152ZM52,204V173l15.52,15.51h0L83,204Zm52-13L93,180l71-71,11,11Zm88-88L153,64l18.34-18.34,39,39Z"/></svg>
